!! 00006] TT[TB
!! Eigene Aufnahme
!!!OTL: Xi cai xin     Kern eines blattgemÅses waschen
!!!ARE: Asia, China,ˇHunan
!! Ethnic Group: Han
!! MM, handschriftlich vorhanden
!!!SCT: C0506
!!!YEM: Copyright 1995, estate of Helmut Schaffrath.
**kern
*ICvox
*Ivox
!! 2+3 metric grouping
!! Mixed meters:  4/4; 5/4
*M5/4
*k[f#c#g#]
*A:
{8a
8f#
16cc#
16ee
16cc#
16ee
8f#
16a
16f#
8e
8c#
=1
4c#
4f#
4r}
{8c#
8f#
=2
4a
16f#
16a
4.f#
8cc#
8ee
=3
8f#
4f#
8c#
4.e
8r}
=4
{8.f#
16f#
8f#
8a
8.cc#
16ee
8cc#
8a
=5
16a
8f#
16a
16cc#
8cc#
16f#
4.a
8r}
=6
{8.cc#
16cc#
8a
8a
8cc#
8a
16cc#
16ee
16cc#
16ee
=7
8f#
4f#
8c#
4.e
8r}
=8
{8f#
4.ee
16f#
16e
4c#
8e
=9
4f#
4.cc#
8ee
16f#
16e
16f#
16e
8c#
8r}
=10
*M4/4
{8.cc#
16cc#
8a
8a
8cc#
8a
16cc#
16ee
16cc#
16ee
=11
8f#
4f#
8c#
2e}
==
!!!AGN: Xiaodiao, Wuge, Huagu, Hunan huagu. Chang richang shenghuo
!! +++Ggf. schon vorhanden?? Saengerin: Huang Bai = VARIANTE
!!    Wenig Verzierungen, Glissandi. +++ NOTEN UEBERPRUEFEN!
!!    Chao Lun Bato ?
!!!ONB: ESAC (Essen Associative Code) Database: CHINA
!!!AMT: irregular
!!!AIN: vox
!!!EED: Helmut Schaffrath
!!!EEV: 1.0
*-
